;FLAVOR:Marlin
;TIME:4502
;Filament used: 3.17603m
;Layer height: 0.2
;MINX:50.21
;MINY:50.125
;MINZ:0.2
;MAXX:169.883
;MAXY:169.883
;MAXZ:1.2
;Generated with Cura_SteamEngine 4.4.0
M140 S60
M105
M190 S60
M104 S215
M105
M109 S215
M82 ;absolute extrusion mode
M201 X500.00 Y500.00 Z100.00 E5000.00 ;Setup machine max acceleration
M203 X500.00 Y500.00 Z10.00 E50.00 ;Setup machine max feedrate
M204 P500.00 R1000.00 T500.00 ;Setup Print/Retract/Travel acceleration
M205 X8.00 Y8.00 Z0.40 E5.00 ;Setup Jerk
M220 S100 ;Reset Feedrate
M221 S100 ;Reset Flowrate

G28 ;Home

G92 E0 ;Reset Extruder
G1 Z2.0 F3000 ;Move Z Axis up
G1 X10.1 Y20 Z0.28 F5000.0 ;Move to start position
G1 X10.1 Y200.0 Z0.28 F1500.0 E15 ;Draw the first line
G1 X10.4 Y200.0 Z0.28 F5000.0 ;Move to side a little
G1 X10.4 Y20 Z0.28 F1500.0 E30 ;Draw the second line
G92 E0 ;Reset Extruder
G1 Z2.0 F3000 ;Move Z Axis up

G92 E0
G92 E0
G1 F1500 E-6.5
;LAYER_COUNT:6
;LAYER:0
M107
G0 F6000 X72.648 Y55.034 Z0.2
;TYPE:SKIRT
G1 F1500 E0
G1 F1200 X73.223 Y54.292 E0.03122
G1 X73.858 Y53.603 E0.06239
G1 X74.55 Y52.97 E0.09358
G1 X75.487 Y52.265 E0.13258
G1 X75.737 Y52.097 E0.1426
G1 X76.151 Y51.832 E0.15895
G1 X76.33 Y51.723 E0.16592
G1 X77.151 Y51.27 E0.19711
G1 X78.008 Y50.888 E0.22831
G1 X78.894 Y50.581 E0.2595
G1 X79.803 Y50.35 E0.29069
G1 X80.728 Y50.198 E0.32187
G1 X81.663 Y50.125 E0.35307
G1 X82.601 Y50.132 E0.38426
G1 X83.535 Y50.219 E0.41546
G1 X84.696 Y50.441 E0.45478
G1 X85.584 Y50.661 E0.48521
G1 X85.786 Y50.713 E0.49214
G1 X122.469 Y60.542 E1.75526
G1 X123.067 Y60.694 E1.77579
G1 X123.205 Y60.73 E1.78053
G1 X160.847 Y70.826 E3.07676
G1 X160.997 Y70.867 E3.08193
G1 X161.632 Y71.047 E3.10388
G1 X162.523 Y71.341 E3.13509
G1 X163.385 Y71.71 E3.16627
G1 X164.213 Y72.151 E3.19748
G1 X165 Y72.661 E3.22867
G1 X165.741 Y73.236 E3.25986
G1 X166.43 Y73.872 E3.29105
G1 X167.062 Y74.564 E3.32222
G1 X167.634 Y75.308 E3.35343
G1 X168.004 Y75.871 E3.37584
G1 X168.173 Y76.146 E3.38658
G1 X168.392 Y76.518 E3.40093
G1 X168.474 Y76.664 E3.4065
G1 X168.898 Y77.501 E3.43771
G1 X169.249 Y78.371 E3.46891
G1 X169.525 Y79.267 E3.5001
G1 X169.723 Y80.184 E3.5313
G1 X169.843 Y81.114 E3.56249
G1 X169.883 Y82.051 E3.59368
G1 X169.843 Y82.988 E3.62487
G1 X169.723 Y83.918 E3.65606
G1 X169.557 Y84.71 E3.68298
G1 X169.343 Y85.569 E3.71242
G1 X169.294 Y85.757 E3.71888
G1 X159.275 Y123.152 E5.00651
G1 X159.123 Y123.75 E5.02703
G1 X159.087 Y123.888 E5.03178
G1 X149.174 Y160.847 E6.30449
G1 X149.137 Y160.983 E6.30917
G1 X148.959 Y161.614 E6.33098
G1 X148.666 Y162.505 E6.36218
G1 X148.298 Y163.368 E6.39338
G1 X147.858 Y164.197 E6.4246
G1 X147.35 Y164.984 E6.45575
G1 X146.775 Y165.726 E6.48697
G1 X146.14 Y166.416 E6.51816
G1 X145.449 Y167.049 E6.54933
G1 X144.706 Y167.622 E6.58054
G1 X144.199 Y167.958 E6.60077
G1 X143.922 Y168.131 E6.61163
G1 X143.51 Y168.376 E6.62757
G1 X143.365 Y168.458 E6.63311
G1 X142.529 Y168.884 E6.66432
G1 X141.661 Y169.238 E6.6955
G1 X140.765 Y169.517 E6.72671
G1 X139.849 Y169.718 E6.7579
G1 X138.919 Y169.84 E6.7891
G1 X137.983 Y169.883 E6.82026
G1 X137.045 Y169.846 E6.85149
G1 X136.115 Y169.729 E6.88266
G1 X135.294 Y169.557 E6.91056
G1 X134.434 Y169.343 E6.94004
G1 X134.243 Y169.294 E6.9466
G1 X96.867 Y159.28 E8.23357
G1 X96.225 Y159.115 E8.25562
G1 X96.113 Y159.086 E8.25947
G1 X59.503 Y149.268 E9.52015
G1 X59.354 Y149.226 E9.5253
G1 X58.701 Y149.041 E9.54787
G1 X57.81 Y148.748 E9.57907
G1 X56.948 Y148.379 E9.61025
G1 X56.12 Y147.938 E9.64145
G1 X55.333 Y147.428 E9.67265
G1 X54.592 Y146.853 E9.70384
G1 X53.902 Y146.218 E9.73503
G1 X53.27 Y145.525 E9.76623
G1 X52.698 Y144.781 E9.79744
G1 X52.216 Y144.032 E9.82706
G1 X51.881 Y143.462 E9.84905
G1 X51.774 Y143.277 E9.85616
G1 X51.647 Y143.051 E9.86478
G1 X51.546 Y142.866 E9.87179
G1 X51.517 Y142.812 E9.87383
G1 X51.109 Y141.968 E9.90501
G1 X50.774 Y141.092 E9.93621
G1 X50.515 Y140.19 E9.96742
G1 X50.334 Y139.27 E9.9986
G1 X50.232 Y138.338 E10.02979
G1 X50.21 Y137.4 E10.061
G1 X50.268 Y136.464 E10.09219
G1 X50.405 Y135.536 E10.12339
G1 X50.535 Y134.946 E10.14348
G1 X50.757 Y134.056 E10.17399
G1 X50.805 Y133.871 E10.18035
G1 X60.555 Y97.481 E11.43337
G1 X60.708 Y96.888 E11.45374
G1 X60.732 Y96.795 E11.45694
G1 X70.809 Y59.211 E12.75114
G1 X70.849 Y59.068 E12.75608
G1 X71.037 Y58.403 E12.77906
G1 X71.33 Y57.512 E12.81026
G1 X71.698 Y56.649 E12.84146
G1 X72.139 Y55.821 E12.87266
G1 X72.648 Y55.034 E12.90384
G0 F6000 X73.014 Y55.21
G1 F1200 X73.583 Y54.486 E12.93446
G1 X74.213 Y53.815 E12.96508
G1 X74.898 Y53.2 E12.99569
G1 X75.71 Y52.597 E13.02933
G1 X75.96 Y52.429 E13.03935
G1 X76.359 Y52.173 E13.05512
G1 X76.538 Y52.064 E13.06209
G1 X77.344 Y51.62 E13.0927
G1 X78.186 Y51.248 E13.12331
G1 X79.057 Y50.95 E13.15393
G1 X79.951 Y50.728 E13.18457
G1 X80.86 Y50.585 E13.21517
G1 X81.779 Y50.521 E13.24581
G1 X82.699 Y50.538 E13.27642
G1 X83.615 Y50.634 E13.30705
G1 X84.6 Y50.829 E13.34045
G1 X85.488 Y51.049 E13.37088
G1 X85.682 Y51.099 E13.37754
G1 X122.345 Y60.923 E14.63997
G1 X122.968 Y61.081 E14.66135
G1 X123.101 Y61.116 E14.66592
G1 X160.743 Y71.212 E15.96215
G1 X160.888 Y71.252 E15.96716
G1 X161.523 Y71.432 E15.98911
G1 X162.397 Y71.721 E16.01973
G1 X163.242 Y72.085 E16.05033
G1 X164.053 Y72.521 E16.08095
G1 X164.823 Y73.026 E16.11158
G1 X165.546 Y73.596 E16.1422
G1 X166.218 Y74.226 E16.17284
G1 X166.831 Y74.912 E16.20344
G1 X167.383 Y75.649 E16.23406
G1 X167.663 Y76.08 E16.25116
G1 X167.832 Y76.355 E16.26189
G1 X168.043 Y76.714 E16.27574
G1 X168.125 Y76.86 E16.28131
G1 X168.541 Y77.682 E16.31195
G1 X168.883 Y78.536 E16.34255
G1 X169.151 Y79.417 E16.37318
G1 X169.34 Y80.318 E16.4038
G1 X169.451 Y81.232 E16.43442
G1 X169.483 Y82.152 E16.46504
G1 X169.434 Y83.072 E16.49568
G1 X169.305 Y83.983 E16.52628
G1 X169.169 Y84.613 E16.54772
G1 X168.955 Y85.472 E16.57716
G1 X168.908 Y85.653 E16.58338
G1 X158.894 Y123.028 E17.87033
G1 X158.736 Y123.651 E17.8917
G1 X158.701 Y123.784 E17.89628
G1 X148.788 Y160.743 E19.16899
G1 X148.752 Y160.875 E19.17354
G1 X148.574 Y161.506 E19.19535
G1 X148.286 Y162.38 E19.22595
G1 X147.923 Y163.226 E19.25657
G1 X147.488 Y164.038 E19.28721
G1 X146.984 Y164.808 E19.31782
G1 X146.415 Y165.532 E19.34845
G1 X145.786 Y166.204 E19.37906
G1 X145.1 Y166.819 E19.4097
G1 X143.987 Y167.619 E19.45529
G1 X143.71 Y167.792 E19.46615
G1 X143.313 Y168.028 E19.48152
G1 X143.168 Y168.11 E19.48706
G1 X142.348 Y168.528 E19.51767
G1 X141.494 Y168.873 E19.5483
G1 X140.614 Y169.143 E19.57892
G1 X139.714 Y169.335 E19.60953
G1 X138.8 Y169.449 E19.64016
G1 X137.88 Y169.483 E19.67078
G1 X136.96 Y169.437 E19.70142
G1 X136.048 Y169.311 E19.73204
G1 X135.39 Y169.169 E19.75443
G1 X134.53 Y168.955 E19.78391
G1 X134.347 Y168.908 E19.79019
G1 X97.009 Y158.904 E21.07586
G1 X96.324 Y158.728 E21.09938
G1 X96.216 Y158.699 E21.1031
G1 X59.606 Y148.881 E22.36378
G1 X59.463 Y148.842 E22.36871
G1 X58.81 Y148.657 E22.39129
G1 X57.936 Y148.367 E22.42191
G1 X57.09 Y148.003 E22.45255
G1 X56.279 Y147.568 E22.48315
G1 X55.509 Y147.063 E22.51378
G1 X54.786 Y146.493 E22.5444
G1 X54.115 Y145.863 E22.57502
G1 X53.501 Y145.177 E22.60564
G1 X52.948 Y144.44 E22.63628
G1 X52.56 Y143.829 E22.66036
G1 X52.225 Y143.259 E22.68235
G1 X52.123 Y143.081 E22.68917
G1 X51.996 Y142.855 E22.69779
G1 X51.898 Y142.677 E22.70455
G1 X51.869 Y142.623 E22.70659
G1 X51.47 Y141.794 E22.73719
G1 X51.143 Y140.933 E22.76782
G1 X50.892 Y140.047 E22.79845
G1 X50.72 Y139.143 E22.82906
G1 X50.626 Y138.227 E22.85968
G1 X50.612 Y137.306 E22.89032
G1 X50.678 Y136.388 E22.92093
G1 X50.923 Y135.043 E22.9664
G1 X51.145 Y134.153 E22.99691
G1 X51.191 Y133.975 E23.00302
G1 X60.941 Y97.585 E24.25605
G1 X61.095 Y96.988 E24.27656
G1 X61.119 Y96.899 E24.27962
G1 X71.196 Y59.315 E25.57382
G1 X71.234 Y59.176 E25.57862
G1 X71.422 Y58.511 E25.6016
G1 X71.71 Y57.637 E25.63221
G1 X72.074 Y56.791 E25.66284
G1 X72.509 Y55.98 E25.69345
G1 X73.014 Y55.21 E25.72408
G0 F6000 X73.379 Y55.387
G1 F1200 X73.943 Y54.682 E25.75411
G1 X74.566 Y54.029 E25.78412
G1 X75.246 Y53.434 E25.81418
G1 X75.933 Y52.929 E25.84253
G1 X76.183 Y52.761 E25.85255
G1 X76.567 Y52.515 E25.86772
G1 X76.746 Y52.406 E25.87469
G1 X77.537 Y51.971 E25.90472
G1 X78.364 Y51.608 E25.93475
G1 X79.22 Y51.319 E25.9648
G1 X80.098 Y51.107 E25.99485
G1 X80.991 Y50.973 E26.02488
G1 X81.892 Y50.919 E26.0549
G1 X82.795 Y50.945 E26.08495
G1 X83.692 Y51.051 E26.11499
G1 X84.504 Y51.217 E26.14256
G1 X85.392 Y51.437 E26.17298
G1 X85.579 Y51.486 E26.17941
G1 X122.222 Y61.304 E27.44115
G1 X122.87 Y61.469 E27.46339
G1 X122.997 Y61.502 E27.46776
G1 X160.639 Y71.598 E28.76399
G1 X160.779 Y71.637 E28.76882
G1 X161.414 Y71.817 E28.79077
G1 X162.271 Y72.101 E28.8208
G1 X163.099 Y72.46 E28.85082
G1 X163.893 Y72.891 E28.88086
G1 X164.645 Y73.391 E28.9109
G1 X165.351 Y73.955 E28.94095
G1 X166.003 Y74.58 E28.97099
G1 X166.598 Y75.259 E29.00102
G1 X167.322 Y76.289 E29.0429
G1 X167.491 Y76.564 E29.05363
G1 X167.694 Y76.91 E29.06697
G1 X167.776 Y77.056 E29.07254
G1 X168.183 Y77.862 E29.10258
G1 X168.517 Y78.701 E29.13261
G1 X168.776 Y79.567 E29.16267
G1 X168.957 Y80.451 E29.19269
G1 X169.059 Y81.349 E29.22275
G1 X169.081 Y82.252 E29.25279
G1 X169.023 Y83.153 E29.28282
G1 X168.886 Y84.046 E29.31287
G1 X168.78 Y84.517 E29.32892
G1 X168.566 Y85.376 E29.35837
G1 X168.522 Y85.55 E29.36434
G1 X158.49 Y122.994 E30.65365
G1 X158.348 Y123.553 E30.67284
G1 X158.315 Y123.68 E30.6772
G1 X148.402 Y160.639 E31.94991
G1 X148.367 Y160.766 E31.95429
G1 X148.189 Y161.397 E31.9761
G1 X147.905 Y162.255 E32.00616
G1 X147.547 Y163.084 E32.03619
G1 X147.117 Y163.878 E32.06622
G1 X146.619 Y164.631 E32.09625
G1 X146.055 Y165.337 E32.12631
G1 X145.432 Y165.99 E32.15632
G1 X144.753 Y166.586 E32.18637
G1 X143.775 Y167.279 E32.22624
G1 X143.498 Y167.452 E32.2371
G1 X143.116 Y167.68 E32.2519
G1 X142.971 Y167.762 E32.25744
G1 X142.166 Y168.171 E32.28747
G1 X141.328 Y168.507 E32.3175
G1 X140.463 Y168.768 E32.34755
G1 X139.579 Y168.952 E32.37758
G1 X138.682 Y169.057 E32.40762
G1 X137.779 Y169.082 E32.43767
G1 X136.878 Y169.027 E32.46769
G1 X135.985 Y168.892 E32.49773
G1 X135.487 Y168.781 E32.5147
G1 X134.627 Y168.567 E32.54418
G1 X134.45 Y168.521 E32.55026
G1 X97.079 Y158.508 E33.83706
G1 X96.424 Y158.34 E33.85956
G1 X96.32 Y158.313 E33.86313
G1 X59.71 Y148.495 E35.12381
G1 X59.572 Y148.457 E35.12857
G1 X58.919 Y148.272 E35.15114
G1 X58.062 Y147.987 E35.18118
G1 X57.233 Y147.628 E35.21123
G1 X56.439 Y147.197 E35.24128
G1 X55.687 Y146.698 E35.27129
G1 X54.982 Y146.134 E35.30132
G1 X54.329 Y145.509 E35.33139
G1 X53.734 Y144.83 E35.36141
G1 X53.202 Y144.1 E35.39146
G1 X52.905 Y143.626 E35.41006
G1 X52.57 Y143.056 E35.43205
G1 X52.472 Y142.885 E35.43861
G1 X52.345 Y142.659 E35.44723
G1 X52.251 Y142.488 E35.45372
G1 X52.222 Y142.434 E35.45576
G1 X51.83 Y141.62 E35.48581
G1 X51.512 Y140.775 E35.51584
G1 X51.27 Y139.905 E35.54587
G1 X51.106 Y139.017 E35.57591
G1 X51.021 Y138.118 E35.60594
G1 X51.016 Y137.215 E35.63598
G1 X51.09 Y136.315 E35.66601
G1 X51.311 Y135.139 E35.70581
G1 X51.533 Y134.249 E35.73632
G1 X51.578 Y134.078 E35.7422
G1 X61.305 Y97.773 E36.9923
G1 X61.482 Y97.089 E37.0158
G1 X61.505 Y97.002 E37.01879
G1 X71.582 Y59.418 E38.31299
G1 X71.619 Y59.285 E38.31758
G1 X71.807 Y58.62 E38.34057
G1 X72.091 Y57.763 E38.37059
G1 X72.449 Y56.934 E38.40063
G1 X72.88 Y56.14 E38.43068
G1 X73.379 Y55.387 E38.46072
G1 F1500 E31.96072
;MESH:paper_bird6.stl
G0 F6000 X85.838 Y124.231
G0 X87.208 Y125.279
G0 X123.205 Y135.717
G0 X135.871 Y157.308
;TYPE:WALL-INNER
G1 F1500 E38.46072
G1 F1200 X100.988 Y147.962 E39.66186
G1 X88.437 Y126.221 E40.49681
G1 X123.319 Y135.568 E41.69792
G1 X135.871 Y157.308 E42.53286
G0 F6000 X136.7 Y157.944
G1 F1200 X100.725 Y148.305 E43.7716
G1 X100.643 Y148.162 E43.77708
G1 X87.608 Y125.585 E44.64417
G1 X123.582 Y135.225 E45.88288
G1 X123.664 Y135.368 E45.88836
G1 X136.7 Y157.944 E46.75544
G0 F6000 X137.036 Y158.202
G0 X137.529 Y158.58
;TYPE:WALL-OUTER
G1 F1200 X100.165 Y148.569 E48.042
G1 X100.353 Y148.46 E48.04923
G1 X86.779 Y124.949 E48.95218
G1 X123.845 Y134.882 E50.2285
G1 X137.529 Y158.58 E51.13866
G0 F6000 X137.036 Y158.202
G0 X135.304 Y156.549
G0 X135.062 Y156.687
;TYPE:SKIN
G1 F1200 X101.245 Y147.626 E52.3031
G1 X89.246 Y126.842 E53.10131
G1 X123.062 Y135.904 E54.26572
G1 X135.062 Y156.687 E55.06391
G0 F6000 X135.304 Y156.549
G0 X123.205 Y135.717
G0 X122.399 Y135.436
G0 X122.285 Y135.862
G1 F1200 X123.627 Y137.203 E55.12701
G0 F6000 X124.009 Y136.984
G0 X124.782 Y138.322
G0 X124.399 Y138.542
G1 F1200 X121.512 Y135.654 E55.26283
G0 F6000 X120.739 Y135.447
G1 F1200 X125.173 Y139.881 E55.47139
G0 F6000 X125.555 Y139.662
G0 X126.328 Y141
G0 X125.946 Y141.219
G1 F1200 X119.967 Y135.241 E55.7526
G0 F6000 X119.194 Y135.034
G1 F1200 X126.719 Y142.559 E56.10656
G0 F6000 X127.101 Y142.34
G0 X127.874 Y143.678
G0 X127.492 Y143.897
G1 F1200 X118.422 Y134.826 E56.53321
G0 F6000 X117.649 Y134.619
G1 F1200 X128.265 Y145.236 E57.03257
G0 F6000 X128.647 Y145.017
G0 X129.42 Y146.357
G0 X129.039 Y146.575
G1 F1200 X116.876 Y134.412 E57.60468
G0 F6000 X116.103 Y134.205
G1 F1200 X129.812 Y147.914 E58.24951
G0 F6000 X130.193 Y147.696
G0 X130.965 Y149.033
G0 X130.584 Y149.252
G1 F1200 X115.33 Y133.998 E58.96701
G0 F6000 X114.557 Y133.79
G1 F1200 X131.358 Y150.591 E59.75728
G0 F6000 X131.739 Y150.373
G0 X132.512 Y151.712
G0 X132.131 Y151.93
G1 F1200 X113.784 Y133.583 E60.62027
G0 F6000 X113.011 Y133.376
G1 F1200 X132.904 Y153.269 E61.55597
G0 F6000 X133.285 Y153.051
G0 X134.058 Y154.39
G0 X133.677 Y154.608
G1 F1200 X112.239 Y133.169 E62.56438
G0 F6000 X111.466 Y132.962
G1 F1200 X134.45 Y155.946 E63.64547
G0 F6000 X134.237 Y156.299
G1 F1200 X110.693 Y132.755 E64.75291
G0 F6000 X109.92 Y132.547
G1 F1200 X133.465 Y156.093 E65.86042
G0 F6000 X132.692 Y155.885
G1 F1200 X109.147 Y132.34 E66.9679
G0 F6000 X108.374 Y132.133
G1 F1200 X131.919 Y155.678 E68.07539
G0 F6000 X131.147 Y155.471
G1 F1200 X107.601 Y131.926 E69.1829
G0 F6000 X106.828 Y131.719
G1 F1200 X130.374 Y155.264 E70.2904
G0 F6000 X129.601 Y155.057
G1 F1200 X106.056 Y131.511 E71.39791
G0 F6000 X105.283 Y131.304
G1 F1200 X128.828 Y154.85 E72.50542
G0 F6000 X128.055 Y154.642
G1 F1200 X104.51 Y131.097 E73.6129
G0 F6000 X103.737 Y130.89
G1 F1200 X127.283 Y154.436 E74.72044
G0 F6000 X126.51 Y154.229
G1 F1200 X102.965 Y130.683 E75.82794
G0 F6000 X102.192 Y130.476
G1 F1200 X125.737 Y154.021 E76.93543
G0 F6000 X124.964 Y153.814
G1 F1200 X101.419 Y130.269 E78.04291
G0 F6000 X100.646 Y130.062
G1 F1200 X124.191 Y153.607 E79.1504
G0 F6000 X123.419 Y153.4
G1 F1200 X99.873 Y129.855 E80.25791
G0 F6000 X99.101 Y129.648
G1 F1200 X122.646 Y153.193 E81.36539
G0 F6000 X121.873 Y152.986
G1 F1200 X98.328 Y129.44 E82.4729
G0 F6000 X97.555 Y129.233
G1 F1200 X121.101 Y152.779 E83.58043
G0 F6000 X120.328 Y152.572
G1 F1200 X96.782 Y129.026 E84.68796
G0 F6000 X96.009 Y128.819
G1 F1200 X119.555 Y152.365 E85.79549
G0 F6000 X118.782 Y152.158
G1 F1200 X95.236 Y128.612 E86.90303
G0 F6000 X94.463 Y128.404
G1 F1200 X118.009 Y151.95 E88.01056
G0 F6000 X117.236 Y151.743
G1 F1200 X93.69 Y128.197 E89.11809
G0 F6000 X92.918 Y127.99
G1 F1200 X116.464 Y151.536 E90.22562
G0 F6000 X115.691 Y151.329
G1 F1200 X92.145 Y127.783 E91.33315
G0 F6000 X91.372 Y127.576
G1 F1200 X114.918 Y151.122 E92.44068
G0 F6000 X114.146 Y150.915
G1 F1200 X90.599 Y127.369 E93.54824
G0 F6000 X89.826 Y127.161
G1 F1200 X113.373 Y150.708 E94.65582
G0 F6000 X112.6 Y150.501
G1 F1200 X90.098 Y127.999 E95.71424
G0 F6000 X89.718 Y128.217
G0 X90.49 Y129.555
G0 X90.87 Y129.337
G1 F1200 X111.827 Y150.294 E96.7
G0 F6000 X111.054 Y150.086
G1 F1200 X91.643 Y130.676 E97.61301
G0 F6000 X91.263 Y130.894
G0 X92.036 Y132.233
G0 X92.417 Y132.015
G1 F1200 X110.281 Y149.879 E98.45327
G0 F6000 X109.509 Y149.673
G1 F1200 X93.19 Y133.353 E99.22089
G0 F6000 X92.809 Y133.572
G0 X93.582 Y134.911
G0 X93.963 Y134.692
G1 F1200 X108.736 Y149.466 E99.91579
G0 F6000 X107.963 Y149.258
G1 F1200 X94.736 Y136.031 E100.53795
G0 F6000 X94.355 Y136.25
G0 X95.127 Y137.588
G0 X95.508 Y137.369
G1 F1200 X107.191 Y149.051 E101.08746
G0 F6000 X106.418 Y148.844
G1 F1200 X96.281 Y138.708 E101.56425
G0 F6000 X95.9 Y138.927
G0 X96.672 Y140.265
