;FLAVOR:Marlin
;TIME:2389
;Filament used: 0.98184m
;Layer height: 0.12
;MINX:59
;MINY:59
;MINZ:0.12
;MAXX:161
;MAXY:161
;MAXZ:0.36
;Generated with Cura_SteamEngine 4.4.0
M140 S60
M105
M190 S60
M104 S200
M105
M109 S200
M82 ;absolute extrusion mode
M201 X500.00 Y500.00 Z100.00 E5000.00 ;Setup machine max acceleration
M203 X500.00 Y500.00 Z10.00 E50.00 ;Setup machine max feedrate
M204 P500.00 R1000.00 T500.00 ;Setup Print/Retract/Travel acceleration
M205 X8.00 Y8.00 Z0.40 E5.00 ;Setup Jerk
M220 S100 ;Reset Feedrate
M221 S100 ;Reset Flowrate

G28 ;Home

G92 E0 ;Reset Extruder
G1 Z2.0 F3000 ;Move Z Axis up
G1 X10.1 Y20 Z0.28 F5000.0 ;Move to start position
G1 X10.1 Y200.0 Z0.28 F1500.0 E15 ;Draw the first line
G1 X10.4 Y200.0 Z0.28 F5000.0 ;Move to side a little
G1 X10.4 Y20 Z0.28 F1500.0 E30 ;Draw the second line
G92 E0 ;Reset Extruder
G1 Z2.0 F3000 ;Move Z Axis up

G92 E0
G92 E0
G1 F1500 E-6.5
;LAYER_COUNT:3
;LAYER:0
M107
G0 F6000 X62.405 Y62.138 Z0.12
;TYPE:SKIRT
G1 F1500 E0
G1 F1200 X63.106 Y61.515 E0.01872
G1 X63.857 Y60.953 E0.03743
G1 X64.654 Y60.458 E0.05616
G1 X65.49 Y60.033 E0.07487
G1 X66.359 Y59.68 E0.09359
G1 X67.255 Y59.403 E0.11231
G1 X68.171 Y59.203 E0.13102
G1 X69.101 Y59.082 E0.14973
G1 X69.594 Y59.05 E0.15959
G1 X70.543 Y59.01 E0.17855
G1 X71.006 Y59 E0.18779
G1 X149.208 Y59 E1.74839
G1 X149.365 Y59.001 E1.75153
G1 X150.066 Y59.011 E1.76552
G1 X151.002 Y59.064 E1.78423
G1 X151.931 Y59.197 E1.80295
G1 X152.844 Y59.409 E1.82166
G1 X153.737 Y59.697 E1.84038
G1 X154.601 Y60.061 E1.85909
G1 X155.432 Y60.497 E1.87782
G1 X156.222 Y61.002 E1.89653
G1 X156.966 Y61.572 E1.91524
G1 X157.525 Y62.073 E1.93022
G1 X157.599 Y62.144 E1.93226
G1 X158.247 Y62.821 E1.95096
G1 X158.835 Y63.552 E1.96969
G1 X159.359 Y64.329 E1.98839
G1 X159.815 Y65.149 E2.00711
G1 X160.2 Y66.004 E2.02582
G1 X160.51 Y66.89 E2.04456
G1 X160.743 Y67.798 E2.06326
G1 X160.899 Y68.723 E2.08198
G1 X160.981 Y69.874 E2.10501
G1 X160.998 Y70.777 E2.12304
G1 X161 Y70.984 E2.12717
G1 X161 Y149.182 E3.68769
G1 X160.999 Y149.334 E3.69073
G1 X160.989 Y150.058 E3.70518
G1 X160.936 Y150.994 E3.72388
G1 X160.804 Y151.923 E3.74261
G1 X160.592 Y152.837 E3.76133
G1 X160.304 Y153.729 E3.78004
G1 X159.941 Y154.594 E3.79876
G1 X159.506 Y155.424 E3.81746
G1 X159.001 Y156.215 E3.83619
G1 X158.431 Y156.96 E3.85491
G1 X158.077 Y157.363 E3.86561
G1 X158.006 Y157.44 E3.8677
G1 X157.341 Y158.101 E3.88641
G1 X156.623 Y158.704 E3.90512
G1 X155.855 Y159.244 E3.92386
G1 X155.045 Y159.716 E3.94257
G1 X154.197 Y160.117 E3.96129
G1 X153.319 Y160.444 E3.97999
G1 X152.415 Y160.696 E3.99871
G1 X151.493 Y160.87 E4.01744
G1 X150.121 Y160.981 E4.04491
G1 X149.194 Y160.998 E4.06341
G1 X148.992 Y161 E4.06744
G1 X70.707 Y161 E5.6297
G1 X70.549 Y160.999 E5.63286
G1 X69.851 Y160.989 E5.64679
G1 X68.915 Y160.935 E5.6655
G1 X67.987 Y160.803 E5.6842
G1 X67.073 Y160.591 E5.70293
G1 X66.181 Y160.302 E5.72164
G1 X65.316 Y159.939 E5.74036
G1 X64.486 Y159.503 E5.75907
G1 X63.695 Y158.998 E5.7778
G1 X62.951 Y158.427 E5.79651
G1 X62.258 Y157.795 E5.81523
G1 X61.621 Y157.107 E5.83394
G1 X61.046 Y156.366 E5.85266
G1 X60.535 Y155.58 E5.87137
G1 X60.093 Y154.752 E5.8901
G1 X59.724 Y153.89 E5.90881
G1 X59.429 Y153 E5.92752
G1 X59.211 Y152.088 E5.94623
G1 X59.071 Y151.16 E5.96496
G1 X59.013 Y150.288 E5.9824
G1 X59.004 Y149.956 E5.98903
G1 X59 Y149.658 E5.99498
G1 X59 Y70.764 E7.56939
G1 X59.001 Y70.6 E7.57267
G1 X59.011 Y69.93 E7.58604
G1 X59.065 Y68.994 E7.60475
G1 X59.199 Y68.065 E7.62348
G1 X59.411 Y67.152 E7.64218
G1 X59.7 Y66.259 E7.66091
G1 X60.064 Y65.395 E7.67962
G1 X60.501 Y64.565 E7.69834
G1 X61.006 Y63.775 E7.71705
G1 X61.713 Y62.872 E7.73994
G1 X61.76 Y62.818 E7.74137
G1 X62.405 Y62.138 E7.76007
G0 F6000 X62.695 Y62.413
G1 F1200 X63.385 Y61.803 E7.77845
G1 X64.125 Y61.255 E7.79683
G1 X64.909 Y60.774 E7.81518
G1 X65.733 Y60.362 E7.83357
G1 X66.589 Y60.023 E7.85194
G1 X67.471 Y59.76 E7.87031
G1 X68.373 Y59.575 E7.88868
G1 X69.611 Y59.449 E7.91352
G1 X70.56 Y59.409 E7.93247
G1 X71.006 Y59.4 E7.94137
G1 X149.208 Y59.4 E9.50198
G1 X149.359 Y59.401 E9.50499
G1 X150.06 Y59.411 E9.51898
G1 X150.979 Y59.464 E9.53735
G1 X151.89 Y59.597 E9.55573
G1 X152.786 Y59.808 E9.5741
G1 X153.661 Y60.096 E9.59248
G1 X154.507 Y60.459 E9.61085
G1 X155.318 Y60.894 E9.62922
G1 X156.089 Y61.398 E9.6476
G1 X156.813 Y61.967 E9.66597
G1 X157.248 Y62.361 E9.67769
G1 X157.322 Y62.432 E9.67973
G1 X157.958 Y63.098 E9.69811
G1 X158.534 Y63.816 E9.71648
G1 X159.045 Y64.582 E9.73486
G1 X159.488 Y65.389 E9.75323
G1 X159.859 Y66.231 E9.77159
G1 X160.156 Y67.103 E9.78997
G1 X160.376 Y67.997 E9.80834
G1 X160.518 Y68.906 E9.82671
G1 X160.581 Y69.881 E9.8462
G1 X160.598 Y70.784 E9.86423
G1 X160.6 Y70.984 E9.86822
G1 X160.6 Y149.182 E11.42874
G1 X160.599 Y149.328 E11.43166
G1 X160.589 Y150.052 E11.44611
G1 X160.536 Y150.972 E11.4645
G1 X160.404 Y151.883 E11.48287
G1 X160.193 Y152.779 E11.50124
G1 X159.906 Y153.653 E11.51959
G1 X159.543 Y154.5 E11.53798
G1 X159.108 Y155.311 E11.55635
G1 X158.605 Y156.082 E11.57472
G1 X157.783 Y157.092 E11.60071
G1 X157.712 Y157.169 E11.6028
G1 X157.059 Y157.818 E11.62117
G1 X156.352 Y158.408 E11.63955
G1 X155.597 Y158.934 E11.65791
G1 X154.799 Y159.393 E11.67628
G1 X153.964 Y159.781 E11.69466
G1 X153.098 Y160.095 E11.71304
G1 X152.209 Y160.333 E11.7314
G1 X151.302 Y160.492 E11.74978
G1 X150.113 Y160.581 E11.77357
G1 X149.186 Y160.598 E11.79208
G1 X148.992 Y160.6 E11.79595
G1 X70.707 Y160.6 E13.35821
G1 X70.555 Y160.599 E13.36124
G1 X69.857 Y160.589 E13.37517
G1 X68.938 Y160.536 E13.39354
G1 X68.027 Y160.403 E13.41192
G1 X67.131 Y160.192 E13.43029
G1 X66.257 Y159.904 E13.44865
G1 X65.41 Y159.541 E13.46704
G1 X64.599 Y159.106 E13.48541
G1 X63.829 Y158.602 E13.50377
G1 X63.105 Y158.033 E13.52215
G1 X62.433 Y157.403 E13.54053
G1 X61.818 Y156.718 E13.5589
G1 X61.265 Y155.982 E13.57727
G1 X60.778 Y155.201 E13.59564
G1 X60.361 Y154.38 E13.61402
G1 X60.016 Y153.526 E13.6324
G1 X59.747 Y152.646 E13.65076
G1 X59.555 Y151.745 E13.66914
G1 X59.442 Y150.832 E13.6875
G1 X59.413 Y150.277 E13.69859
G1 X59.404 Y149.945 E13.70522
G1 X59.4 Y149.658 E13.71095
G1 X59.4 Y70.764 E15.28537
G1 X59.401 Y70.606 E15.28852
G1 X59.411 Y69.936 E15.30189
G1 X59.465 Y69.017 E15.32026
G1 X59.598 Y68.106 E15.33863
G1 X59.81 Y67.21 E15.35701
G1 X60.099 Y66.336 E15.37538
G1 X60.462 Y65.49 E15.39375
G1 X60.898 Y64.679 E15.41213
G1 X61.402 Y63.908 E15.43051
G1 X62.014 Y63.135 E15.45018
G1 X62.061 Y63.081 E15.45161
G1 X62.695 Y62.413 E15.46999
G0 F6000 X62.986 Y62.689
G1 F1200 X63.664 Y62.092 E15.48802
G1 X64.392 Y61.558 E15.50604
G1 X65.164 Y61.09 E15.52405
G1 X65.975 Y60.693 E15.54207
G1 X66.818 Y60.368 E15.5601
G1 X67.686 Y60.119 E15.57812
G1 X68.573 Y59.949 E15.59614
G1 X69.627 Y59.849 E15.61727
G1 X70.576 Y59.809 E15.63623
G1 X71.006 Y59.8 E15.64481
G1 X149.208 Y59.8 E17.20542
G1 X149.353 Y59.801 E17.20831
G1 X150.054 Y59.811 E17.2223
G1 X150.956 Y59.864 E17.24033
G1 X151.849 Y59.996 E17.25835
G1 X152.728 Y60.207 E17.27639
G1 X153.584 Y60.495 E17.29441
G1 X154.411 Y60.857 E17.31243
G1 X155.203 Y61.291 E17.33045
G1 X155.953 Y61.794 E17.34847
G1 X156.971 Y62.65 E17.37501
G1 X157.045 Y62.721 E17.37706
G1 X157.668 Y63.374 E17.39507
G1 X158.231 Y64.08 E17.41309
G1 X158.73 Y64.834 E17.43113
G1 X159.16 Y65.628 E17.44915
G1 X159.517 Y66.457 E17.46717
G1 X159.801 Y67.314 E17.48518
G1 X160.007 Y68.194 E17.50322
G1 X160.135 Y69.088 E17.52124
G1 X160.181 Y69.889 E17.53725
G1 X160.198 Y70.792 E17.55528
G1 X160.2 Y70.984 E17.55911
G1 X160.2 Y149.182 E19.11963
G1 X160.199 Y149.323 E19.12245
G1 X160.189 Y150.047 E19.1369
G1 X160.137 Y150.948 E19.15491
G1 X160.005 Y151.842 E19.17294
G1 X159.794 Y152.72 E19.19096
G1 X159.507 Y153.576 E19.20898
G1 X159.145 Y154.404 E19.22701
G1 X158.711 Y155.196 E19.24503
G1 X158.209 Y155.946 E19.26304
G1 X157.489 Y156.82 E19.28564
G1 X157.418 Y156.897 E19.28773
G1 X156.777 Y157.534 E19.30577
G1 X156.082 Y158.111 E19.32379
G1 X155.339 Y158.624 E19.34181
G1 X154.553 Y159.069 E19.35984
G1 X153.731 Y159.444 E19.37787
G1 X152.88 Y159.744 E19.39587
G1 X152.005 Y159.967 E19.41389
G1 X151.113 Y160.113 E19.43193
G1 X150.106 Y160.181 E19.45207
G1 X149.179 Y160.198 E19.47058
G1 X148.992 Y160.2 E19.47431
G1 X70.707 Y160.2 E21.03657
G1 X70.561 Y160.199 E21.03948
G1 X69.863 Y160.189 E21.05341
G1 X68.961 Y160.136 E21.07144
G1 X68.068 Y160.004 E21.08946
G1 X67.19 Y159.793 E21.10748
G1 X66.334 Y159.505 E21.1255
G1 X65.507 Y159.143 E21.14352
G1 X64.715 Y158.708 E21.16155
G1 X63.964 Y158.206 E21.17958
G1 X63.261 Y157.639 E21.1976
G1 X62.611 Y157.012 E21.21562
G1 X62.019 Y156.33 E21.23365
G1 X61.489 Y155.599 E21.25166
G1 X61.027 Y154.823 E21.26969
G1 X60.634 Y154.01 E21.28771
G1 X60.316 Y153.165 E21.30573
G1 X60.073 Y152.295 E21.32375
G1 X59.908 Y151.407 E21.34178
G1 X59.813 Y150.266 E21.36462
G1 X59.804 Y149.934 E21.37125
G1 X59.8 Y149.658 E21.37676
G1 X59.8 Y70.764 E22.95118
G1 X59.801 Y70.612 E22.95421
G1 X59.811 Y69.942 E22.96758
G1 X59.865 Y69.04 E22.98561
G1 X59.998 Y68.147 E23.00363
G1 X60.209 Y67.269 E23.02165
G1 X60.497 Y66.413 E23.03968
G1 X60.86 Y65.586 E23.0577
G1 X61.295 Y64.794 E23.07573
G1 X61.798 Y64.044 E23.09375
G1 X62.316 Y63.397 E23.11029
G1 X62.363 Y63.343 E23.11172
G1 X62.986 Y62.689 E23.12975
G1 F1500 E16.62975
;MESH:paper_bird_3layer.stl
G0 F6000 X69.335 Y71.067
G0 X70.407 Y71.067
G0 X89.512 Y90.38
G0 X89.513 Y130.428
G0 X89.572 Y130.487
G0 X129.186 Y130.487
G0 X147.501 Y149
;TYPE:WALL-INNER
G1 F1500 E23.12975
G1 F1200 X147.021 Y149 E23.13933
G1 X147.02 Y149 E23.13934
G1 X71 Y149 E24.65641
G1 X71 Y72.98 E26.17347
G1 X71 Y72.979 E26.17349
G1 X71 Y72.499 E26.18307
G1 X71.34 Y72.839 E26.18823
G1 X88.941 Y90.438 E26.68494
G1 X88.941 Y131 E27.4944
G1 X89 Y131 E27.49558
G1 X89 Y131.059 E27.49675
G1 X129.561 Y131.06 E28.30619
G1 X147.161 Y148.66 E28.8029
G1 X147.501 Y149 E28.80806
G0 F6000 X147.986 Y149.4
G1 F1200 X70.6 Y149.4 E30.35238
G1 X70.6 Y72.014 E31.89671
G1 X70.6 Y72.013 E31.89673
G1 X70.6 Y71.533 E31.90631
G1 X70.94 Y71.873 E31.91147
G1 X89.341 Y90.272 E32.43076
G1 X89.341 Y130.6 E33.23554
G1 X89.4 Y130.6 E33.23672
G1 X89.4 Y130.659 E33.2379
G1 X129.727 Y130.66 E34.04267
G1 X148.127 Y149.06 E34.56196
G1 X148.467 Y149.4 E34.57155
G1 X147.987 Y149.4 E34.5767
G1 X147.986 Y149.4 E34.57672
G1 F1500 E28.07672
G0 F6000 X148.859 Y149.562
G0 X149.433 Y149.8
;TYPE:WALL-OUTER
G1 F1500 E34.57672
G1 F1200 X70.2 Y149.8 E36.15791
G1 X70.2 Y70.567 E37.73909
G1 X89.741 Y90.106 E38.29055
G1 X89.741 Y130.2 E39.09067
G1 X89.8 Y130.2 E39.09184
G1 X89.8 Y130.259 E39.09302
G1 X129.893 Y130.26 E39.89312
G1 X149.433 Y149.8 E40.44458
G0 F6000 X148.859 Y149.562
G0 X146.758 Y148.413
G0 X146.561 Y148.61
;TYPE:SKIN
G1 F1200 X71.39 Y148.61 E41.9447
G1 X71.39 Y73.439 E43.44482
G1 X88.551 Y90.598 E43.92911
G1 X88.551 Y131.39 E44.74316
G1 X88.61 Y131.39 E44.74434
G1 X88.61 Y131.449 E44.74551
G1 X129.401 Y131.45 E45.55954
G1 X146.561 Y148.61 E46.04383
G1 F1500 E39.54383
G0 F6000 X146.758 Y148.413
G0 X147.031 Y148.805
G0 X72.081 Y148.89
G0 X72.081 Y148.449
G1 F1500 E46.04383
G1 F1200 X71.55 Y147.917 E46.05883
G0 F6000 X71.55 Y147.351
G1 F1200 X72.647 Y148.449 E46.08981
G0 F6000 X73.213 Y148.449
G1 F1200 X71.55 Y146.786 E46.13674
G0 F6000 X71.55 Y146.22
G1 F1200 X73.778 Y148.449 E46.19963
G0 F6000 X74.344 Y148.449
G1 F1200 X71.55 Y145.654 E46.2785
G0 F6000 X71.55 Y145.089
G1 F1200 X74.91 Y148.449 E46.37333
G0 F6000 X75.475 Y148.449
G1 F1200 X71.55 Y144.523 E46.48411
G0 F6000 X71.55 Y143.957
G1 F1200 X76.041 Y148.449 E46.61087
G0 F6000 X76.607 Y148.449
G1 F1200 X71.55 Y143.392 E46.75359
G0 F6000 X71.55 Y142.826
G1 F1200 X77.172 Y148.449 E46.91227
G0 F6000 X77.738 Y148.449
G1 F1200 X71.55 Y142.26 E47.08692
G0 F6000 X71.55 Y141.695
G1 F1200 X78.304 Y148.449 E47.27754
G0 F6000 X78.869 Y148.449
G1 F1200 X71.55 Y141.129 E47.48411
G0 F6000 X71.55 Y140.563
G1 F1200 X79.435 Y148.449 E47.70666
G0 F6000 X80.001 Y148.449
G1 F1200 X71.55 Y139.997 E47.94517
G0 F6000 X71.55 Y139.432
G1 F1200 X80.567 Y148.449 E48.19965
G0 F6000 X81.132 Y148.449
G1 F1200 X71.55 Y138.866 E48.47009
G0 F6000 X71.55 Y138.3
G1 F1200 X81.698 Y148.449 E48.75651
G0 F6000 X82.264 Y148.449
G1 F1200 X71.55 Y137.735 E49.05888
G0 F6000 X71.55 Y137.169
G1 F1200 X82.829 Y148.449 E49.37721
G0 F6000 X83.395 Y148.449
G1 F1200 X71.55 Y136.603 E49.71152
G0 F6000 X71.55 Y136.038
G1 F1200 X83.961 Y148.449 E50.06178
G0 F6000 X84.526 Y148.449
G1 F1200 X71.55 Y135.472 E50.42801
G0 F6000 X71.55 Y134.906
G1 F1200 X85.092 Y148.449 E50.8102
G0 F6000 X85.658 Y148.449
G1 F1200 X71.55 Y134.341 E51.20836
G0 F6000 X71.55 Y133.775
G1 F1200 X86.223 Y148.449 E51.62248
G0 F6000 X86.789 Y148.449
G1 F1200 X71.55 Y133.209 E52.05257
G0 F6000 X71.55 Y132.644
G1 F1200 X87.355 Y148.449 E52.49862
G0 F6000 X87.92 Y148.449
G1 F1200 X71.55 Y132.078 E52.96063
G0 F6000 X71.55 Y131.512
G1 F1200 X88.486 Y148.449 E53.43862
G0 F6000 X89.052 Y148.449
G1 F1200 X71.55 Y130.946 E53.93258
G0 F6000 X71.55 Y130.381
G1 F1200 X89.618 Y148.449 E54.44249
G0 F6000 X90.183 Y148.449
G1 F1200 X71.55 Y129.815 E54.96837
G0 F6000 X71.55 Y129.249
G1 F1200 X90.749 Y148.449 E55.51022
G0 F6000 X91.315 Y148.449
G1 F1200 X71.55 Y128.684 E56.06803
G0 F6000 X71.55 Y128.118
G1 F1200 X91.88 Y148.449 E56.64181
G0 F6000 X92.446 Y148.449
G1 F1200 X71.55 Y127.552 E57.23155
G0 F6000 X71.55 Y126.987
G1 F1200 X93.012 Y148.449 E57.83725
G0 F6000 X93.577 Y148.449
G1 F1200 X71.55 Y126.421 E58.45892
G0 F6000 X71.55 Y125.855
G1 F1200 X94.143 Y148.449 E59.09655
G0 F6000 X94.709 Y148.449
G1 F1200 X71.55 Y125.29 E59.75015
G0 F6000 X71.55 Y124.724
G1 F1200 X95.274 Y148.449 E60.41971
G0 F6000 X95.84 Y148.449
G1 F1200 X71.55 Y124.158 E61.10524
G0 F6000 X71.55 Y123.593
G1 F1200 X96.406 Y148.449 E61.80673
G0 F6000 X96.971 Y148.449
G1 F1200 X71.55 Y123.027 E62.52418
G0 F6000 X71.55 Y122.461
G1 F1200 X97.537 Y148.449 E63.2576
G0 F6000 X98.103 Y148.449
G1 F1200 X71.55 Y121.896 E64.00698
G0 F6000 X71.55 Y121.33
G1 F1200 X98.668 Y148.449 E64.77233
G0 F6000 X99.234 Y148.449
G1 F1200 X71.55 Y120.764 E65.55364
G0 F6000 X71.55 Y120.198
G1 F1200 X99.8 Y148.449 E66.35093
G0 F6000 X100.366 Y148.449
G1 F1200 X71.55 Y119.633 E67.16418
G0 F6000 X71.55 Y119.067
G1 F1200 X100.931 Y148.449 E67.99339
G0 F6000 X101.497 Y148.449
G1 F1200 X71.55 Y118.501 E68.83858
G0 F6000 X71.55 Y117.936
G1 F1200 X102.063 Y148.449 E69.69972
G0 F6000 X102.628 Y148.449
G1 F1200 X71.55 Y117.37 E70.57682
G0 F6000 X71.55 Y116.804
G1 F1200 X103.194 Y148.449 E71.4699
G0 F6000 X103.76 Y148.449
G1 F1200 X71.55 Y116.239 E72.37893
G0 F6000 X71.55 Y115.673
G1 F1200 X104.325 Y148.449 E73.30393
G0 F6000 X104.891 Y148.449
G1 F1200 X71.55 Y115.107 E74.2449
G0 F6000 X71.55 Y114.542
G1 F1200 X88.391 Y131.383 E74.72019
G0 F6000 X88.616 Y131.608
G1 F1200 X105.457 Y148.449 E75.19548
G0 F6000 X106.022 Y148.449
G1 F1200 X89.182 Y131.608 E75.67075
G0 F6000 X89.748 Y131.608
G1 F1200 X106.588 Y148.449 E76.14603
G0 F6000 X107.154 Y148.449
G1 F1200 X90.313 Y131.608 E76.62132
G0 F6000 X90.879 Y131.608
G1 F1200 X107.719 Y148.449 E77.09659
G0 F6000 X108.285 Y148.449
G1 F1200 X91.445 Y131.608 E77.57187
G0 F6000 X92.01 Y131.608
G1 F1200 X108.851 Y148.449 E78.04716
G0 F6000 X109.416 Y148.449
G1 F1200 X92.576 Y131.608 E78.52243
G0 F6000 X93.142 Y131.608
G1 F1200 X109.982 Y148.449 E78.99771
G0 F6000 X110.548 Y148.449
G1 F1200 X93.707 Y131.608 E79.473
G0 F6000 X94.273 Y131.608
G1 F1200 X111.114 Y148.449 E79.94829
G0 F6000 X111.679 Y148.449
G1 F1200 X94.839 Y131.608 E80.42356
G0 F6000 X95.404 Y131.608
G1 F1200 X112.245 Y148.449 E80.89885
G0 F6000 X112.811 Y148.449
G1 F1200 X95.97 Y131.608 E81.37414
G0 F6000 X96.536 Y131.608
G1 F1200 X113.376 Y148.449 E81.84942
G0 F6000 X113.942 Y148.449
G1 F1200 X97.102 Y131.608 E82.32469
G0 F6000 X97.667 Y131.608
G1 F1200 X114.508 Y148.449 E82.79998
G0 F6000 X115.073 Y148.449
G1 F1200 X98.233 Y131.608 E83.27526
G0 F6000 X98.799 Y131.608
G1 F1200 X115.639 Y148.449 E83.75053
G0 F6000 X116.205 Y148.449
G1 F1200 X99.364 Y131.608 E84.22582
G0 F6000 X99.93 Y131.608
G1 F1200 X116.77 Y148.449 E84.7011
G0 F6000 X117.336 Y148.449
G1 F1200 X100.496 Y131.608 E85.17637
G0 F6000 X101.061 Y131.608
