;FLAVOR:Marlin
;TIME:4285
;Filament used: 1.61047m
;Layer height: 0.12
;MINX:42.691
;MINY:42.689
;MINZ:0.12
;MAXX:177.309
;MAXY:177.555
;MAXZ:0.6
;Generated with Cura_SteamEngine 4.4.0
M140 S60
M105
M190 S60
M104 S215
M105
M109 S215
M82 ;absolute extrusion mode
M201 X500.00 Y500.00 Z100.00 E5000.00 ;Setup machine max acceleration
M203 X500.00 Y500.00 Z10.00 E50.00 ;Setup machine max feedrate
M204 P500.00 R1000.00 T500.00 ;Setup Print/Retract/Travel acceleration
M205 X8.00 Y8.00 Z0.40 E5.00 ;Setup Jerk
M220 S100 ;Reset Feedrate
M221 S100 ;Reset Flowrate

G28 ;Home

G92 E0 ;Reset Extruder
G1 Z2.0 F3000 ;Move Z Axis up
G1 X10.1 Y20 Z0.28 F5000.0 ;Move to start position
G1 X10.1 Y200.0 Z0.28 F1500.0 E15 ;Draw the first line
G1 X10.4 Y200.0 Z0.28 F5000.0 ;Move to side a little
G1 X10.4 Y20 Z0.28 F1500.0 E30 ;Draw the second line
G92 E0 ;Reset Extruder
G1 Z2.0 F3000 ;Move Z Axis up

G92 E0
G92 E0
G1 F1500 E-6.5
;LAYER_COUNT:5
;LAYER:0
M107
G0 F6000 X97.299 Y50.576 Z0.12
;TYPE:SKIRT
G1 F1500 E0
G1 F1200 X101.491 Y46.384 E0.11831
G1 X101.597 Y46.279 E0.12128
G1 X102.081 Y45.808 E0.13476
G1 X102.781 Y45.183 E0.15349
G1 X103.531 Y44.62 E0.1722
G1 X104.326 Y44.123 E0.19091
G1 X105.161 Y43.695 E0.20964
G1 X106.029 Y43.34 E0.22835
G1 X106.924 Y43.061 E0.24706
G1 X107.84 Y42.859 E0.26578
G1 X108.77 Y42.735 E0.2845
G1 X109.692 Y42.691 E0.30292
G1 X110.055 Y42.689 E0.31017
G1 X110.301 Y42.691 E0.31508
G1 X110.42 Y42.693 E0.31745
G1 X111.356 Y42.748 E0.33616
G1 X112.284 Y42.884 E0.35488
G1 X113.197 Y43.097 E0.37359
G1 X114.089 Y43.388 E0.39231
G1 X114.953 Y43.754 E0.41104
G1 X115.782 Y44.192 E0.42975
G1 X116.571 Y44.699 E0.44847
G1 X117.314 Y45.271 E0.46718
G1 X117.867 Y45.769 E0.48203
G1 X118.551 Y46.428 E0.50098
G1 X118.698 Y46.573 E0.50511
G1 X122.692 Y50.568 E0.61784
G1 X169.424 Y97.299 E1.9367
G1 X173.616 Y101.491 E2.05501
G1 X173.716 Y101.592 E2.05785
G1 X174.174 Y102.062 E2.07094
G1 X174.799 Y102.761 E2.08965
G1 X175.363 Y103.511 E2.10838
G1 X175.86 Y104.306 E2.12709
G1 X176.289 Y105.14 E2.14581
G1 X176.644 Y106.008 E2.16452
G1 X176.924 Y106.903 E2.18324
G1 X177.127 Y107.819 E2.20196
G1 X177.251 Y108.748 E2.22066
G1 X177.287 Y109.302 E2.23174
G1 X177.302 Y109.679 E2.23927
G1 X177.309 Y110.301 E2.25169
G1 X177.307 Y110.42 E2.25406
G1 X177.252 Y111.356 E2.27277
G1 X177.116 Y112.284 E2.29149
G1 X176.903 Y113.197 E2.3102
G1 X176.612 Y114.089 E2.32892
G1 X176.246 Y114.953 E2.34765
G1 X175.808 Y115.782 E2.36636
G1 X175.301 Y116.571 E2.38507
G1 X174.729 Y117.314 E2.40379
G1 X174.229 Y117.868 E2.41868
G1 X173.564 Y118.558 E2.4378
G1 X173.421 Y118.704 E2.44188
G1 X169.423 Y122.701 E2.5547
G1 X122.591 Y169.534 E3.87641
G1 X122.571 Y169.554 E3.87698
G1 X122.374 Y169.75 E3.88252
G1 X118.323 Y173.802 E3.99687
G1 X118.227 Y173.897 E3.99956
G1 X117.684 Y174.427 E4.0147
G1 X116.986 Y175.053 E4.03341
G1 X116.237 Y175.617 E4.05212
G1 X115.442 Y176.115 E4.07085
G1 X114.608 Y176.544 E4.08956
G1 X113.74 Y176.9 E4.10828
G1 X112.845 Y177.181 E4.127
G1 X111.93 Y177.385 E4.14571
G1 X111.001 Y177.509 E4.16442
G1 X110.064 Y177.555 E4.18314
G1 X109.126 Y177.52 E4.20187
G1 X108.196 Y177.406 E4.22057
G1 X107.278 Y177.213 E4.23929
G1 X106.38 Y176.942 E4.25801
G1 X105.508 Y176.596 E4.27673
G1 X104.669 Y176.176 E4.29545
G1 X103.869 Y175.687 E4.31416
G1 X103.113 Y175.132 E4.33288
G1 X102.469 Y174.572 E4.34991
G1 X102.221 Y174.339 E4.3567
G1 X101.975 Y174.1 E4.36354
G1 X46.384 Y118.509 E5.93244
G1 X46.27 Y118.394 E5.93567
G1 X45.801 Y117.911 E5.94911
G1 X45.177 Y117.211 E5.96782
G1 X44.615 Y116.46 E5.98654
G1 X44.119 Y115.664 E6.00526
G1 X43.692 Y114.829 E6.02397
G1 X43.338 Y113.96 E6.0427
G1 X43.06 Y113.065 E6.0614
G1 X42.859 Y112.149 E6.08012
G1 X42.736 Y111.219 E6.09884
G1 X42.693 Y110.294 E6.11732
G1 X42.691 Y109.811 E6.12696
G1 X42.727 Y108.873 E6.14569
G1 X42.843 Y107.943 E6.16439
G1 X43.038 Y107.025 E6.18312
G1 X43.31 Y106.128 E6.20183
G1 X43.657 Y105.257 E6.22054
G1 X44.078 Y104.418 E6.23927
G1 X44.568 Y103.619 E6.25797
G1 X45.125 Y102.864 E6.2767
G1 X45.774 Y102.129 E6.29626
G1 X46.453 Y101.425 E6.31578
G1 X46.593 Y101.282 E6.31978
G1 X50.577 Y97.299 E6.4322
G1 X97.299 Y50.576 E7.75081
G0 F6000 X97.582 Y50.859
G1 F1200 X101.876 Y46.565 E7.872
G1 X102.36 Y46.094 E7.88547
G1 X103.047 Y45.482 E7.90383
G1 X103.785 Y44.931 E7.92221
G1 X104.568 Y44.446 E7.94059
G1 X105.39 Y44.031 E7.95897
G1 X106.244 Y43.689 E7.97733
G1 X107.125 Y43.422 E7.9957
G1 X108.026 Y43.233 E8.01407
G1 X108.94 Y43.122 E8.03244
G1 X109.695 Y43.091 E8.04752
G1 X110.058 Y43.089 E8.05477
G1 X110.294 Y43.09 E8.05948
G1 X110.413 Y43.092 E8.06185
G1 X111.332 Y43.148 E8.08023
G1 X112.243 Y43.283 E8.0986
G1 X113.138 Y43.496 E8.11696
G1 X114.012 Y43.787 E8.13535
G1 X114.857 Y44.152 E8.15372
G1 X115.667 Y44.589 E8.17208
G1 X116.437 Y45.095 E8.19047
G1 X117.159 Y45.665 E8.20883
G1 X117.59 Y46.057 E8.22045
G1 X118.274 Y46.716 E8.23941
G1 X118.415 Y46.856 E8.24337
G1 X122.409 Y50.851 E8.35611
G1 X169.141 Y97.582 E9.67497
G1 X173.43 Y101.871 E9.79602
G1 X173.888 Y102.341 E9.80911
G1 X174.501 Y103.028 E9.82749
G1 X175.052 Y103.765 E9.84585
G1 X175.538 Y104.547 E9.86422
G1 X175.953 Y105.369 E9.8826
G1 X176.296 Y106.223 E9.90097
G1 X176.563 Y107.104 E9.91934
G1 X176.753 Y108.005 E9.93771
G1 X176.888 Y109.318 E9.96405
G1 X176.903 Y109.695 E9.97158
G1 X176.91 Y110.294 E9.98354
G1 X176.908 Y110.413 E9.98591
G1 X176.852 Y111.332 E10.00429
G1 X176.717 Y112.243 E10.02266
G1 X176.504 Y113.138 E10.04102
G1 X176.213 Y114.012 E10.05941
G1 X175.848 Y114.857 E10.07777
G1 X175.411 Y115.667 E10.09614
G1 X174.905 Y116.437 E10.11453
G1 X174.335 Y117.159 E10.13289
G1 X173.941 Y117.591 E10.14455
G1 X173.276 Y118.281 E10.16368
G1 X173.138 Y118.421 E10.1676
G1 X169.14 Y122.418 E10.28042
G1 X122.308 Y169.251 E11.60213
G1 X122.289 Y169.27 E11.60267
G1 X122.092 Y169.466 E11.60822
G1 X118.04 Y173.519 E11.72259
G1 X117.948 Y173.611 E11.72518
G1 X117.405 Y174.141 E11.74032
G1 X116.719 Y174.754 E11.75868
G1 X115.982 Y175.306 E11.77706
G1 X115.2 Y175.792 E11.79543
G1 X114.379 Y176.209 E11.81381
G1 X113.525 Y176.552 E11.83217
G1 X112.644 Y176.82 E11.85055
G1 X111.743 Y177.011 E11.86893
G1 X110.829 Y177.123 E11.88731
G1 X109.909 Y177.155 E11.90568
G1 X108.99 Y177.107 E11.92404
G1 X108.078 Y176.979 E11.94242
G1 X107.181 Y176.773 E11.96079
G1 X106.305 Y176.49 E11.97916
G1 X105.457 Y176.132 E11.99753
G1 X104.643 Y175.701 E12.01591
G1 X103.87 Y175.202 E12.03427
G1 X103.142 Y174.637 E12.05266
G1 X102.743 Y174.28 E12.06334
G1 X102.495 Y174.047 E12.07014
G1 X102.258 Y173.817 E12.07673
G1 X46.667 Y118.226 E13.64562
G1 X46.557 Y118.115 E13.64874
G1 X46.088 Y117.632 E13.66218
G1 X45.476 Y116.945 E13.68054
G1 X44.926 Y116.206 E13.69892
G1 X44.442 Y115.423 E13.71729
G1 X44.028 Y114.601 E13.73566
G1 X43.687 Y113.746 E13.75403
G1 X43.421 Y112.864 E13.77241
G1 X43.233 Y111.963 E13.79078
G1 X43.123 Y111.049 E13.80915
G1 X43.093 Y110.292 E13.82427
G1 X43.091 Y109.809 E13.83391
G1 X43.127 Y108.889 E13.85228
G1 X43.243 Y107.976 E13.87065
G1 X43.438 Y107.076 E13.88903
G1 X43.71 Y106.196 E13.90741
G1 X44.057 Y105.344 E13.92577
G1 X44.477 Y104.524 E13.94415
G1 X44.967 Y103.745 E13.96252
G1 X45.522 Y103.01 E13.9809
G1 X46.061 Y102.406 E13.99705
G1 X46.74 Y101.702 E14.01657
G1 X46.876 Y101.565 E14.02042
G1 X50.86 Y97.582 E14.13285
G1 X97.582 Y50.859 E15.45146
G0 F6000 X97.864 Y51.142
G1 F1200 X102.056 Y46.95 E15.56976
G1 X102.155 Y46.852 E15.57254
G1 X102.639 Y46.381 E15.58602
G1 X103.314 Y45.78 E15.60406
G1 X104.039 Y45.242 E15.62207
G1 X104.809 Y44.77 E15.6401
G1 X105.617 Y44.367 E15.65812
G1 X106.458 Y44.038 E15.67614
G1 X107.325 Y43.784 E15.69417
G1 X108.211 Y43.608 E15.71219
G1 X109.108 Y43.511 E15.7302
G1 X109.697 Y43.491 E15.74196
G1 X110.06 Y43.489 E15.7492
G1 X110.287 Y43.49 E15.75373
G1 X110.406 Y43.492 E15.75611
G1 X111.308 Y43.548 E15.77414
G1 X112.201 Y43.682 E15.79216
G1 X113.078 Y43.895 E15.81017
G1 X113.934 Y44.185 E15.82821
G1 X114.76 Y44.55 E15.84623
G1 X115.551 Y44.986 E15.86426
G1 X116.3 Y45.49 E15.88227
G1 X117.312 Y46.346 E15.90872
G1 X117.996 Y47.005 E15.92768
G1 X118.132 Y47.138 E15.93147
G1 X122.126 Y51.133 E16.04421
G1 X168.858 Y97.864 E17.36307
G1 X173.05 Y102.056 E17.48138
G1 X173.143 Y102.15 E17.48402
G1 X173.601 Y102.62 E17.49711
G1 X174.202 Y103.294 E17.51513
G1 X174.741 Y104.019 E17.53316
G1 X175.214 Y104.788 E17.55118
G1 X175.617 Y105.597 E17.56922
G1 X175.947 Y106.437 E17.58723
G1 X176.201 Y107.304 E17.60526
G1 X176.378 Y108.19 E17.62329
G1 X176.488 Y109.333 E17.6462
G1 X176.503 Y109.71 E17.65373
G1 X176.51 Y110.287 E17.66525
G1 X176.508 Y110.406 E17.66762
G1 X176.452 Y111.308 E17.68566
G1 X176.318 Y112.201 E17.70368
G1 X176.105 Y113.078 E17.72169
G1 X175.815 Y113.934 E17.73972
G1 X175.45 Y114.76 E17.75774
G1 X175.014 Y115.551 E17.77577
G1 X174.51 Y116.3 E17.79378
G1 X173.653 Y117.313 E17.82026
G1 X172.988 Y118.003 E17.83939
G1 X172.856 Y118.138 E17.84316
G1 X168.858 Y122.135 E17.95597
G1 X122.026 Y168.968 E19.27769
G1 X122.007 Y168.987 E19.27822
G1 X121.81 Y169.183 E19.28377
G1 X117.757 Y173.237 E19.39817
G1 X117.669 Y173.324 E19.40064
G1 X117.126 Y173.854 E19.41578
G1 X116.452 Y174.456 E19.43381
G1 X115.728 Y174.996 E19.45184
G1 X114.959 Y175.469 E19.46986
G1 X114.151 Y175.873 E19.48788
G1 X113.31 Y176.203 E19.50591
G1 X112.444 Y176.458 E19.52393
G1 X111.559 Y176.635 E19.54194
G1 X110.661 Y176.734 E19.55997
G1 X109.758 Y176.752 E19.57799
G1 X108.857 Y176.691 E19.59601
G1 X107.965 Y176.55 E19.61404
G1 X107.089 Y176.33 E19.63206
G1 X106.236 Y176.035 E19.65007
G1 X105.412 Y175.664 E19.66811
G1 X104.624 Y175.223 E19.68613
G1 X103.878 Y174.713 E19.70416
G1 X103.017 Y173.989 E19.72661
G1 X102.769 Y173.756 E19.7334
G1 X102.541 Y173.534 E19.73975
G1 X46.844 Y117.837 E21.31164
G1 X46.375 Y117.354 E21.32508
G1 X45.775 Y116.679 E21.3431
G1 X45.238 Y115.953 E21.36112
G1 X44.766 Y115.183 E21.37914
G1 X44.365 Y114.374 E21.39716
G1 X44.036 Y113.532 E21.4152
G1 X43.784 Y112.665 E21.43322
G1 X43.609 Y111.779 E21.45124
G1 X43.513 Y110.881 E21.46926
G1 X43.493 Y110.29 E21.48107
G1 X43.491 Y109.807 E21.4907
G1 X43.527 Y108.905 E21.50872
G1 X43.643 Y108.009 E21.52675
G1 X43.838 Y107.127 E21.54478
G1 X44.11 Y106.266 E21.56279
G1 X44.457 Y105.432 E21.58082
G1 X44.876 Y104.633 E21.59883
G1 X45.365 Y103.873 E21.61686
G1 X45.919 Y103.16 E21.63488
G1 X46.349 Y102.684 E21.64768
G1 X47.028 Y101.98 E21.6672
G1 X47.158 Y101.848 E21.6709
G1 X51.142 Y97.865 E21.78332
G1 X97.864 Y51.142 E23.10193
G1 F1500 E16.60193
;MESH:paper_bird_5layer.stl
G0 F6000 X52.905 Y109.596
G0 X52.905 Y110.404
G0 X107.807 Y165.316
G0 X108.517 Y164.606
G0 X109.999 Y166.09
G0 X110 Y166.287
;TYPE:WALL-OUTER
G1 F1500 E23.10193
G1 F1200 X54.163 Y110.45 E24.67777
G1 X81.53 Y110.45 E25.22391
G1 X109.823 Y138.744 E26.02241
G1 X110 Y138.566 E26.02742
G1 X110.177 Y138.744 E26.03243
G1 X138.47 Y110.45 E26.83093
G1 X165.837 Y110.45 E27.37707
G1 X161.505 Y114.781 E27.49932
G1 X114.575 Y161.712 E28.8238
G1 X114.531 Y161.754 E28.82501
G1 X110 Y166.287 E28.95291
G0 F6000 X110 Y165.737
;TYPE:SKIN
G1 F1200 X55.103 Y110.84 E30.50223
G1 X81.37 Y110.84 E31.02641
G1 X109.823 Y139.296 E31.82946
G1 X110 Y139.118 E31.83447
G1 X110.177 Y139.296 E31.83948
G1 X138.63 Y110.84 E32.64253
G1 X164.897 Y110.84 E33.16671
G1 X161.23 Y114.506 E33.27019
G1 X114.35 Y161.387 E34.59326
G1 X114.258 Y161.475 E34.5958
G1 X110 Y165.737 E34.71602
G0 F6000 X110.035 Y165.472
G1 F1200 X55.562 Y110.999 E36.25337
G0 F6000 X56.128 Y110.999
G1 F1200 X110.318 Y165.19 E37.78274
G0 F6000 X110.601 Y164.907
G1 F1200 X56.693 Y110.999 E39.30414
G0 F6000 X57.259 Y110.999
G1 F1200 X110.884 Y164.624 E40.81756
G0 F6000 X111.167 Y164.341
G1 F1200 X57.825 Y110.999 E42.32298
G0 F6000 X58.39 Y110.999
G1 F1200 X111.449 Y164.058 E43.82042
G0 F6000 X111.732 Y163.775
G1 F1200 X58.956 Y110.999 E45.30988
G0 F6000 X59.522 Y110.999
G1 F1200 X112.015 Y163.492 E46.79134
G0 F6000 X112.297 Y163.209
G1 F1200 X60.087 Y110.999 E48.26482
G0 F6000 X60.653 Y110.999
G1 F1200 X112.58 Y162.926 E49.73031
G0 F6000 X112.863 Y162.643
G1 F1200 X61.219 Y110.999 E51.18782
G0 F6000 X61.784 Y110.999
G1 F1200 X113.146 Y162.36 E52.63735
G0 F6000 X113.429 Y162.078
G1 F1200 X62.35 Y110.999 E54.07891
G0 F6000 X62.916 Y110.999
G1 F1200 X113.711 Y161.795 E55.51247
G0 F6000 X113.994 Y161.512
G1 F1200 X63.481 Y110.999 E56.93805
G0 F6000 X64.047 Y110.999
G1 F1200 X114.279 Y161.23 E58.3557
G0 F6000 X114.561 Y160.948
G1 F1200 X64.613 Y110.999 E59.76535
G0 F6000 X65.178 Y110.999
G1 F1200 X114.844 Y160.665 E61.16703
G0 F6000 X115.127 Y160.382
G1 F1200 X65.744 Y110.999 E62.56073
G0 F6000 X66.31 Y110.999
G1 F1200 X115.41 Y160.099 E63.94644
G0 F6000 X115.693 Y159.816
G1 F1200 X66.876 Y110.999 E65.32416
G0 F6000 X67.441 Y110.999
G1 F1200 X115.976 Y159.533 E66.69391
G0 F6000 X116.258 Y159.251
G1 F1200 X68.007 Y110.999 E68.05567
G0 F6000 X68.573 Y110.999
G1 F1200 X116.541 Y158.968 E69.40944
G0 F6000 X116.824 Y158.685
G1 F1200 X69.138 Y110.999 E70.75524
G0 F6000 X69.704 Y110.999
G1 F1200 X117.107 Y158.402 E72.09306
G0 F6000 X117.39 Y158.119
G1 F1200 X70.27 Y110.999 E73.42289
G0 F6000 X70.835 Y110.999
G1 F1200 X117.673 Y157.836 E74.74474
G0 F6000 X117.956 Y157.553
G1 F1200 X71.401 Y110.999 E76.05861
G0 F6000 X71.967 Y110.999
G1 F1200 X118.238 Y157.271 E77.36449
G0 F6000 X118.521 Y156.988
G1 F1200 X72.532 Y110.999 E78.6624
G0 F6000 X73.098 Y110.999
G1 F1200 X118.804 Y156.705 E79.95232
G0 F6000 X119.087 Y156.422
G1 F1200 X73.664 Y110.999 E81.23426
G0 F6000 X74.229 Y110.999
G1 F1200 X119.37 Y156.139 E82.50822
G0 F6000 X119.653 Y155.856
G1 F1200 X74.795 Y110.999 E83.7742
G0 F6000 X75.361 Y110.999
G1 F1200 X119.935 Y155.574 E85.03219
G0 F6000 X120.218 Y155.291
G1 F1200 X75.927 Y110.999 E86.28219
G0 F6000 X76.492 Y110.999
G1 F1200 X120.501 Y155.008 E87.52422
G0 F6000 X120.784 Y154.725
G1 F1200 X77.058 Y110.999 E88.75826
G0 F6000 X77.624 Y110.999
G1 F1200 X121.067 Y154.442 E89.98431
G0 F6000 X121.35 Y154.159
G1 F1200 X78.189 Y110.999 E91.2024
G0 F6000 X78.755 Y110.999
G1 F1200 X121.632 Y153.877 E92.41249
G0 F6000 X121.915 Y153.594
G1 F1200 X79.321 Y110.999 E93.6146
G0 F6000 X79.886 Y110.999
G1 F1200 X122.198 Y153.311 E94.80874
G0 F6000 X122.481 Y153.028
G1 F1200 X80.452 Y110.999 E95.99489
G0 F6000 X81.018 Y110.999
G1 F1200 X122.764 Y152.745 E97.17305
G0 F6000 X123.047 Y152.462
G1 F1200 X109.963 Y139.379 E97.54229
G0 F6000 X110.423 Y139.273
G1 F1200 X123.33 Y152.179 E97.90654
G0 F6000 X123.612 Y151.897
G1 F1200 X110.706 Y138.991 E98.27078
G0 F6000 X110.989 Y138.708
G1 F1200 X123.895 Y151.614 E98.63501
G0 F6000 X124.178 Y151.331
G1 F1200 X111.272 Y138.425 E98.99925
G0 F6000 X111.555 Y138.142
G1 F1200 X124.461 Y151.048 E99.36348
G0 F6000 X124.744 Y150.765
G1 F1200 X111.838 Y137.859 E99.72772
G0 F6000 X112.12 Y137.576
G1 F1200 X125.027 Y150.482 E100.09197
G0 F6000 X125.309 Y150.2
G1 F1200 X112.403 Y137.293 E100.45622
G0 F6000 X112.686 Y137.011
G1 F1200 X125.592 Y149.917 E100.82045
G0 F6000 X125.875 Y149.634
G1 F1200 X112.969 Y136.728 E101.18469
G0 F6000 X113.252 Y136.445
G1 F1200 X126.158 Y149.351 E101.54892
G0 F6000 X126.441 Y149.068
G1 F1200 X113.535 Y136.162 E101.91316
G0 F6000 X113.818 Y135.879
G1 F1200 X126.724 Y148.785 E102.27739
G0 F6000 X127.006 Y148.503
G1 F1200 X114.1 Y135.596 E102.64164
G0 F6000 X114.383 Y135.314
G1 F1200 X127.289 Y148.22 E103.00588
G0 F6000 X127.572 Y147.937
G1 F1200 X114.666 Y135.031 E103.37011
G0 F6000 X114.949 Y134.748
G1 F1200 X127.855 Y147.654 E103.73435
G0 F6000 X128.138 Y147.371
G1 F1200 X115.232 Y134.465 E104.09858
G0 F6000 X115.515 Y134.182
G1 F1200 X128.421 Y147.088 E104.46282
G0 F6000 X128.704 Y146.805
G1 F1200 X115.797 Y133.899 E104.82707
G0 F6000 X116.08 Y133.617
G1 F1200 X128.986 Y146.523 E105.1913
G0 F6000 X129.269 Y146.24
G1 F1200 X116.363 Y133.334 E105.55554
G0 F6000 X116.646 Y133.051
G1 F1200 X129.552 Y145.957 E105.91977
G0 F6000 X129.835 Y145.674
G1 F1200 X116.929 Y132.768 E106.28401
G0 F6000 X117.212 Y132.485
G1 F1200 X130.118 Y145.391 E106.64824
G0 F6000 X130.401 Y145.108
G1 F1200 X117.494 Y132.202 E107.01249
G0 F6000 X117.777 Y131.919
G1 F1200 X130.683 Y144.826 E107.37674
G0 F6000 X130.966 Y144.543
